X:901
T:Gu Man Slan a Chi Mi
S:Shetland Young Heritage
Z:Nigel Gatherer
M:3/4
L:1/4
K:A
E2E | FA2 | B2c | BA2 | F2E | FA2 | E3- | E3 |
e2e | dc2 | B2A Bc2 | d2c | df2 | e3- | e3 |
e2e | f2e | d2c | cB2 | A2A | Bc2 | e3- | e3 |
E2E | FA2 | B2c | BA2 | F2E | E2F | A3 ||
